!!!!SEGMENT: pl-kk--kk-i-329--003_costanzi-giovanni-battista--confitebor-confessio.krn
!!!cenid: 17xx:1922
!!!COM: Costanzi, Giovanni Battista
!!!COM-rismid: pe20000434
!!!CDT: 1704-1778
!!!CNT: Italian
!!!OPR: Confitebor
!!!OTL: Confessio
!!!OMV: 003
!!!PDT:
!!!AGN: Sacred
!!!SMS-siglum: PL-Kk
!!!SMS-shelfmark: Kk.I.329
!!!SMS-shelfwork: 001-003 M
!!!SMS-variant:
!!!SMS-altvar:
!!!NIFC-rismid: 1001143621
!!!URL-scan: http://repozytorium.nifc.pl/skany/pl-kk-nut--i-329
!!!ONB-nifc: UWAGA: części Confitebor: 1. Confitebor, 2. Magna opera, 3. Confessio, 4. Memoriam fecit, 5. Memor erit, 6. Fidelia omnia, 7. Redemptionem, 8. Sanctum, 9. Intellectus bonus, 10. Gloria Patri, 11. Sicut erat, 12. Amen
!!!key:
**kern	**fba	**kern	**kern	**kern	**kern	**kern	**kern	**text	**kern
*part8	*	*part7	*part6	*part5	*part4	*part3	*part2	*part2	*part1
*	*	*group2	*group2	*group2	*group2	*group1	*group1	*	*group1
*staff8	*	*staff7	*staff6	*staff5	*staff4	*staff3	*staff2	*staff2	*staff1
*Iorgan	*	*Iempty	*Itenor	*Ialto	*Ivox	*Iempty	*Ialto	*	*Ivox
*I"[Organo]	*	*I"Baſso di Ripieno	*I"Tenore di Ripieno	*I"Alto di Ripieno	*I"Canto di Ripieno	*I"Baſso di Concerto	*I"Alto di Concerto	*	*I"Canto di Concerto.
*I'org	*	*I'B rip	*I'T rip	*I'A rip	*I'C rip	*I'B conc	*I'A conc	*	*I'C conc
*clefF4	*	*clefF4	*clefC4	*clefC3	*clefC1	*clefF4	*clefC3	*	*clefC1
*k[f#]	*	*k[f#]	*k[f#]	*k[f#]	*k[f#]	*k[f#]	*k[f#]	*	*k[f#]
*e:	*	*e:	*e:	*e:	*e:	*e:	*e:	*	*e:
*M3/8	*	*M3/8	*M3/8	*M3/8	*M3/8	*M3/8	*M3/8	*	*M3/8
=1	=1	=1	=1	=1	=1	=1	=1	=1	=1
*	*below	*	*	*	*	*	*	*	*
!	!	!	!	!	!	!	!LO:TX:a:t=And.	!	!
!LO:TX:a:t=Alto Solo\ne hic.\nConfessio	!	!LO:TX:a:t=Confessio Tacet	!LO:TX:a:t=Confessio Tacet	!LO:TX:a:t=Confessio Tacet	!LO:TX:a:t=Confessio Tacet	!LO:TX:a:t=Confessio Tacet	!LO:TX:a:t=Solo	!	!LO:TX:a:t=Confessio Tacet
8E\L	#	4.ryy	4.ryy	4.ryy	4.ryy	4.ryy	4.r	.	4.ryy
8G\	3	.	.	.	.	.	.	.	.
*	*above	*	*	*	*	*	*	*	*
8B\J	.	.	.	.	.	.	.	.	.
=2	=2	=2	=2	=2	=2	=2	=2	=2	=2
16G\LL	.	4.ryy	4.ryy	4.ryy	4.ryy	4.ryy	8r	.	4.ryy
16F#\JJ	.	.	.	.	.	.	.	.	.
!LO:TX:a:t=Al.	!	!	!	!	!	!	!	!	!
4E\	.	.	.	.	.	.	8r	.	.
.	.	.	.	.	.	.	8b\	Con-	.
=3	=3	=3	=3	=3	=3	=3	=3	=3	=3
4.E\	.	4.ryy	4.ryy	4.ryy	4.ryy	4.ryy	8b\L	-fes-	4.ryy
.	.	.	.	.	.	.	8a\J	.	.
.	.	.	.	.	.	.	8g\	-si-	.
=4	=4	=4	=4	=4	=4	=4	=4	=4	=4
8E\L	.	4.ryy	4.ryy	4.ryy	4.ryy	4.ryy	8g\	-o	4.ryy
8G\	.	.	.	.	.	.	4e\	et	.
8E\J	.	.	.	.	.	.	.	.	.
=5	=5	=5	=5	=5	=5	=5	=5	=5	=5
8D#X\L	3	4.ryy	4.ryy	4.ryy	4.ryy	4.ryy	8f#\L	ma-	4.ryy
8E\	3	.	.	.	.	.	8g\	.	.
8F#\J	3	.	.	.	.	.	8a\J	.	.
!LO:PB:g=original	!	!	!	!	!	!	!LO:LB:g=original	!	!
=6	=6	=6	=6	=6	=6	=6	=6	=6	=6
8D#X\L	6	4.ryy	4.ryy	4.ryy	4.ryy	4.ryy	8B/	-gni-	4.ryy
8D#\	.	.	.	.	.	.	4a\	-fi-	.
8D#\J	.	.	.	.	.	.	.	.	.
=7	=7	=7	=7	=7	=7	=7	=7	=7	=7
8E\L	7	4.ryy	4.ryy	4.ryy	4.ryy	4.ryy	8.g\	-cen-	4.ryy
8F#\	6	.	.	.	.	.	.	.	.
.	.	.	.	.	.	.	16f#\	-ti-	.
8G\J	.	.	.	.	.	.	8e\	-a	.
=8	=8	=8	=8	=8	=8	=8	=8	=8	=8
8A\L	.	4.ryy	4.ryy	4.ryy	4.ryy	4.ryy	8.ccL\	o-	4.ryy
8F#\	.	.	.	.	.	.	.	.	.
.	.	.	.	.	.	.	16aJk\	.	.
8G\J	.	.	.	.	.	.	[8b\	-pus	.
=9	=9	=9	=9	=9	=9	=9	=9	=9	=9
!LO:TX:t=P:problem=mixed beam	!	!	!	!	!	!	!	!	!
8E\L	.	4.ryy	4.ryy	4.ryy	4.ryy	4.ryy	16b\LL]	.	4.ryy
.	.	.	.	.	.	.	16g\JJ	.	.
8F#\	.	.	.	.	.	.	4a\	e-	.
8BB/J	#3	.	.	.	.	.	.	.	.
=10	=10	=10	=10	=10	=10	=10	=10	=10	=10
8E\L	.	4.ryy	4.ryy	4.ryy	4.ryy	4.ryy	4g\	-ius	4.ryy
8E\	.	.	.	.	.	.	.	.	.
8F#\J	.	.	.	.	.	.	8r	.	.
!	!	!	!	!	!	!	!LO:LB:g=original	!	!
=11	=11	=11	=11	=11	=11	=11	=11	=11	=11
8G\L	.	4.ryy	4.ryy	4.ryy	4.ryy	4.ryy	8g\	et	4.ryy
8G\	.	.	.	.	.	.	16g\LL	ius-	.
.	.	.	.	.	.	.	16a\	.	.
8G\J	.	.	.	.	.	.	16b\	.	.
.	.	.	.	.	.	.	16cc\JJ	.	.
!LO:LB:g=original	!	!	!	!	!	!	!	!	!
=12	=12	=12	=12	=12	=12	=12	=12	=12	=12
8F#\L	.	4.ryy	4.ryy	4.ryy	4.ryy	4.ryy	8.dd\	-ti-	4.ryy
8F#\	.	.	.	.	.	.	.	.	.
.	.	.	.	.	.	.	16d\	-ti-	.
8F#\J	.	.	.	.	.	.	8d\	-a	.
=13	=13	=13	=13	=13	=13	=13	=13	=13	=13
8E\L	6	4.ryy	4.ryy	4.ryy	4.ryy	4.ryy	8e\	e-	4.ryy
8A\	.	.	.	.	.	.	4cc\	-ius	.
8F#\J	.	.	.	.	.	.	.	.	.
=14	=14	=14	=14	=14	=14	=14	=14	=14	=14
8G\L	.	4.ryy	4.ryy	4.ryy	4.ryy	4.ryy	8cc\	ma-	4.ryy
8G\	.	.	.	.	.	.	4b\	-net	.
8G\J	.	.	.	.	.	.	.	.	.
=15	=15	=15	=15	=15	=15	=15	=15	=15	=15
8BB/L	.	4.ryy	4.ryy	4.ryy	4.ryy	4.ryy	16.g\LL	ma-	4.ryy
.	.	.	.	.	.	.	64a\LL	.	.
.	.	.	.	.	.	.	64b\JJJJ	.	.
8BB/	.	.	.	.	.	.	4g\	.	.
8BB/J	.	.	.	.	.	.	.	.	.
!	!	!	!	!	!	!	!LO:PB:g=original	!	!
=16	=16	=16	=16	=16	=16	=16	=16	=16	=16
.	.	.	.	.	.	.	8qqf#/	.	.
8C/L	.	4.ryy	4.ryy	4.ryy	4.ryy	4.ryy	8e\L	.	4.ryy
8C/	.	.	.	.	.	.	16e\L	.	.
.	.	.	.	.	.	.	16f#\JJ	.	.
8C/J	.	.	.	.	.	.	8c\	.	.
=17	=17	=17	=17	=17	=17	=17	=17	=17	=17
8C/L	.	4.ryy	4.ryy	4.ryy	4.ryy	4.ryy	32a\LLL	.	4.ryy
.	.	.	.	.	.	.	32b\J	.	.
.	.	.	.	.	.	.	16cc\JJ	.	.
8C/	.	.	.	.	.	.	4a\	.	.
8C/J	.	.	.	.	.	.	.	.	.
=18	=18	=18	=18	=18	=18	=18	=18	=18	=18
8D\L	.	4.ryy	4.ryy	4.ryy	4.ryy	4.ryy	8.f#\L	.	4.ryy
8D\	.	.	.	.	.	.	.	.	.
.	.	.	.	.	.	.	16e\Jk	.	.
8D\J	.	.	.	.	.	.	8d\	-net	.
!LO:LB:g=original	!	!	!	!	!	!	!	!	!
=19	=19	=19	=19	=19	=19	=19	=19	=19	=19
8d\L	.	4.ryy	4.ryy	4.ryy	4.ryy	4.ryy	(8d\L	ma-	4.ryy
8c\	.	.	.	.	.	.	8f#\J)	.	.
8B\J	6	.	.	.	.	.	8g\	-net	.
!	!	!	!	!	!	!	!LO:LB:g=original	!	!
=20	=20	=20	=20	=20	=20	=20	=20	=20	=20
8A\L	#6	4.ryy	4.ryy	4.ryy	4.ryy	4.ryy	8.a\L	ma-	4.ryy
8F#\	.	.	.	.	.	.	.	.	.
.	.	.	.	.	.	.	32b\LL	.	.
.	.	.	.	.	.	.	32cc\JJJ	.	.
8G\J	.	.	.	.	.	.	8b\	-net	.
=21	=21	=21	=21	=21	=21	=21	=21	=21	=21
8d\L	.	4.ryy	4.ryy	4.ryy	4.ryy	4.ryy	(8d\L	ma-	4.ryy
8c\	.	.	.	.	.	.	8f#\J)	.	.
8B\J	.	.	.	.	.	.	8g\	-net	.
=22	=22	=22	=22	=22	=22	=22	=22	=22	=22
8A\L	.	4.ryy	4.ryy	4.ryy	4.ryy	4.ryy	8.a\L	ma-	4.ryy
8F#\	.	.	.	.	.	.	.	.	.
.	.	.	.	.	.	.	32b\LL	.	.
.	.	.	.	.	.	.	32cc\JJJ	.	.
8G\J	.	.	.	.	.	.	8b\	-net	.
=23	=23	=23	=23	=23	=23	=23	=23	=23	=23
8A\L	.	4.ryy	4.ryy	4.ryy	4.ryy	4.ryy	4.cc\	in	4.ryy
8F#\	.	.	.	.	.	.	.	.	.
8G\J	.	.	.	.	.	.	.	.	.
=24	=24	=24	=24	=24	=24	=24	=24	=24	=24
8G\L	.	4.ryy	4.ryy	4.ryy	4.ryy	4.ryy	8b\	S(a)e-	4.ryy
8A\	.	.	.	.	.	.	8a\	-cu-	.
8B\J	.	.	.	.	.	.	8g\	-lu(m)	.
!LO:LB:g=original	!	!	!	!	!	!	!LO:LB:g=original	!	!
=25	=25	=25	=25	=25	=25	=25	=25	=25	=25
!LO:TX:t=P:problem=mixed beam	!	!	!	!	!	!	!	!	!
8c\L	.	4.ryy	4.ryy	4.ryy	4.ryy	4.ryy	16e\LL	Se-	4.ryy
.	.	.	.	.	.	.	16g\JJ	.	.
.	.	.	.	.	.	.	8qqg/	.	.
8d\	.	.	.	.	.	.	4f#\	-cu-	.
8D/J	#3	.	.	.	.	.	.	.	.
=26	=26	=26	=26	=26	=26	=26	=26	=26	=26
!LO:TX:a:t=Cito.lo	!	!	!	!	!	!	!	!	!
8G\L	.	4.ryy	4.ryy	4.ryy	4.ryy	4.ryy	4g\	-li	4.ryy
8d\	.	.	.	.	.	.	.	.	.
8c\J	.	.	.	.	.	.	8r	.	.
=27	=27	=27	=27	=27	=27	=27	=27	=27	=27
*Xtuplet	*	*	*	*	*	*	*	*	*
!	!	!	!	!	!	!	!LO:TX:b:t=1	!	!
24B\LL	.	4.ryy	4.ryy	4.ryy	4.ryy	4.ryy	4.r	.	4.ryy
24c\	.	.	.	.	.	.	.	.	.
24d\JJ	.	.	.	.	.	.	.	.	.
8G\L	.	.	.	.	.	.	.	.	.
8F#\J	.	.	.	.	.	.	.	.	.
=28	=28	=28	=28	=28	=28	=28	=28	=28	=28
16G\LL	.	4.ryy	4.ryy	4.ryy	4.ryy	4.ryy	8r	.	4.ryy
16D\JJ	.	.	.	.	.	.	.	.	.
!LO:TX:a:t=Al.o	!	!	!	!	!	!	!	!	!
4GG/	.	.	.	.	.	.	8r	.	.
.	.	.	.	.	.	.	8b\	Con-	.
=29	=29	=29	=29	=29	=29	=29	=29	=29	=29
4.G\	.	4.ryy	4.ryy	4.ryy	4.ryy	4.ryy	8b\L	-fe-	4.ryy
.	.	.	.	.	.	.	8a\J	.	.
.	.	.	.	.	.	.	8g\	-ssi-	.
=30	=30	=30	=30	=30	=30	=30	=30	=30	=30
8G\L	.	4.ryy	4.ryy	4.ryy	4.ryy	4.ryy	4.f#\	-o	4.ryy
8B\	.	.	.	.	.	.	.	.	.
8d\J	.	.	.	.	.	.	.	.	.
!LO:LB:g=original	!	!	!	!	!	!	!LO:LB:g=original	!	!
=31	=31	=31	=31	=31	=31	=31	=31	=31	=31
8G\L	.	4.ryy	4.ryy	4.ryy	4.ryy	4.ryy	8g\	con-	4.ryy
8G\	.	.	.	.	.	.	16b\LL	-fes-	.
.	.	.	.	.	.	.	16a\JJ	.	.
8G\J	.	.	.	.	.	.	8g\	-si-	.
=32	=32	=32	=32	=32	=32	=32	=32	=32	=32
.	.	.	.	.	.	.	8qqg/	.	.
8D#X\L	3	4.ryy	4.ryy	4.ryy	4.ryy	4.ryy	4.f#\	-o	4.ryy
8D#\	.	.	.	.	.	.	.	.	.
8D#\J	.	.	.	.	.	.	.	.	.
=33	=33	=33	=33	=33	=33	=33	=33	=33	=33
8D#X\L	.	4.ryy	4.ryy	4.ryy	4.ryy	4.ryy	8f#\	et	4.ryy
8D#\	5	.	.	.	.	.	4a\	ma-	.
8D#\J	.	.	.	.	.	.	.	.	.
=34	=34	=34	=34	=34	=34	=34	=34	=34	=34
8D\L	.	4.ryy	4.ryy	4.ryy	4.ryy	4.ryy	8B/	-gni-	4.ryy
8D\	.	.	.	.	.	.	4a\	-fi-	.
8D\J	.	.	.	.	.	.	.	.	.
=35	=35	=35	=35	=35	=35	=35	=35	=35	=35
8E\L	n3	4.ryy	4.ryy	4.ryy	4.ryy	4.ryy	8.g\	-cen-	4.ryy
8E\	.	.	.	.	.	.	.	.	.
.	.	.	.	.	.	.	16f#\	-ti-	.
8E\J	.	.	.	.	.	.	8e\	-a	.
!	!	!	!	!	!	!	!LO:LB:g=original	!	!
=36	=36	=36	=36	=36	=36	=36	=36	=36	=36
8Dn\L	7	4.ryy	4.ryy	4.ryy	4.ryy	4.ryy	8g#X\	ma-	4.ryy
8D\	4	.	.	.	.	.	8g#\	-gni-	.
8D\J	.	.	.	.	.	.	8g#\	-fi-	.
!LO:LB:g=original	!	!	!	!	!	!	!	!	!
=37	=37	=37	=37	=37	=37	=37	=37	=37	=37
8C/L	.	4.ryy	4.ryy	4.ryy	4.ryy	4.ryy	8.a\	-cen-	4.ryy
8BB/	.	.	.	.	.	.	.	.	.
.	.	.	.	.	.	.	16e\	-ti-	.
8AA/J	.	.	.	.	.	.	8e\	-a	.
=38	=38	=38	=38	=38	=38	=38	=38	=38	=38
8GG#X/L	.	4.ryy	4.ryy	4.ryy	4.ryy	4.ryy	16b\LL	o-	4.ryy
.	.	.	.	.	.	.	16cc\	.	.
8AA/	.	.	.	.	.	.	16dd\	.	.
.	.	.	.	.	.	.	16cc\JJ	.	.
8E/J	#3	.	.	.	.	.	8b\	-pus	.
=39	=39	=39	=39	=39	=39	=39	=39	=39	=39
8A\L	.	4.ryy	4.ryy	4.ryy	4.ryy	4.ryy	16cc\LL	e-	4.ryy
.	.	.	.	.	.	.	16g#X\JJ	.	.
.	.	.	.	.	.	.	8qqb/	.	.
8c\	.	.	.	.	.	.	4a\	-ius	.
8A\J	.	.	.	.	.	.	.	.	.
!	!	!	!	!	!	!	!LO:LB:g=original	!	!
=40	=40	=40	=40	=40	=40	=40	=40	=40	=40
8D\L	.	4.ryy	4.ryy	4.ryy	4.ryy	4.ryy	8f#\	ma-	4.ryy
8d\	.	.	.	.	.	.	8f#\	-gni-	.
8c\J	.	.	.	.	.	.	8f#\	-fi-	.
=41	=41	=41	=41	=41	=41	=41	=41	=41	=41
8B\L	.	4.ryy	4.ryy	4.ryy	4.ryy	4.ryy	8.g\	-cen-	4.ryy
8A\	.	.	.	.	.	.	.	.	.
.	.	.	.	.	.	.	16d\	-ti-	.
8G\J	.	.	.	.	.	.	8d\	-a	.
=42	=42	=42	=42	=42	=42	=42	=42	=42	=42
8F#\L	.	4.ryy	4.ryy	4.ryy	4.ryy	4.ryy	16a\LL	o-	4.ryy
.	.	.	.	.	.	.	16b\	.	.
8G\	.	.	.	.	.	.	16cc\	.	.
.	.	.	.	.	.	.	16b\JJ	.	.
8D\J	.	.	.	.	.	.	8a\	-pus	.
!LO:LB:g=original	!	!	!	!	!	!	!	!	!
=43	=43	=43	=43	=43	=43	=43	=43	=43	=43
!LO:TX:t=P:problem=mixed beam	!	!	!	!	!	!	!	!	!
8GG/L	.	4.ryy	4.ryy	4.ryy	4.ryy	4.ryy	16b\LL	e-	4.ryy
.	.	.	.	.	.	.	16a\JJ	.	.
8G\	.	.	.	.	.	.	4g\	-ius	.
8G\J	.	.	.	.	.	.	.	.	.
=44	=44	=44	=44	=44	=44	=44	=44	=44	=44
8E\L	.	4.ryy	4.ryy	4.ryy	4.ryy	4.ryy	8b\	et	4.ryy
8G\	.	.	.	.	.	.	8.b\L	ius-	.
8E\J	.	.	.	.	.	.	.	.	.
.	.	.	.	.	.	.	16cc\Jk	.	.
!	!	!	!	!	!	!	!LO:LB:g=original	!	!
=45	=45	=45	=45	=45	=45	=45	=45	=45	=45
8F#\L	.	4.ryy	4.ryy	4.ryy	4.ryy	4.ryy	8a\	-ti-	4.ryy
8D#X\	5	.	.	.	.	.	8a\	-ti-	.
8BB\J	7	.	.	.	.	.	8b\	-a	.
=46	=46	=46	=46	=46	=46	=46	=46	=46	=46
8E/L	.	4.ryy	4.ryy	4.ryy	4.ryy	4.ryy	16g\LL	e-	4.ryy
.	.	.	.	.	.	.	16f#\	.	.
8C/	.	.	.	.	.	.	16g\	.	.
.	.	.	.	.	.	.	16a\JJ	.	.
8AA/J	.	.	.	.	.	.	8g\	-iuſ	.
=47	=47	=47	=47	=47	=47	=47	=47	=47	=47
8BB\L	6 4	4.ryy	4.ryy	4.ryy	4.ryy	4.ryy	8g\	ma-	4.ryy
8B\	.	.	.	.	.	.	4f#\	-net	.
8B\J	5 #3	.	.	.	.	.	.	.	.
=48	=48	=48	=48	=48	=48	=48	=48	=48	=48
*	*	*	*	*	*	*	*Xtuplet	*	*
8BB\L	.	4.ryy	4.ryy	4.ryy	4.ryy	4.ryy	24f#\LL	ma-	4.ryy
.	.	.	.	.	.	.	24g\	.	.
.	.	.	.	.	.	.	24a\JJ	.	.
8D#X\	#3	.	.	.	.	.	4a\	.	.
8F#\J	.	.	.	.	.	.	.	.	.
=49	=49	=49	=49	=49	=49	=49	=49	=49	=49
8E\L	.	4.ryy	4.ryy	4.ryy	4.ryy	4.ryy	24g\LL	.	4.ryy
.	.	.	.	.	.	.	24f#\	.	.
.	.	.	.	.	.	.	24e\JJ	.	.
8G\	.	.	.	.	.	.	4e\	.	.
8B\J	#3	.	.	.	.	.	.	.	.
!LO:LB:g=original	!	!	!	!	!	!	!	!	!
=50	=50	=50	=50	=50	=50	=50	=50	=50	=50
8BB\L	#3	4.ryy	4.ryy	4.ryy	4.ryy	4.ryy	24f#\LL	.	4.ryy
.	.	.	.	.	.	.	24g\	.	.
.	.	.	.	.	.	.	24a\JJ	.	.
8D#X\	.	.	.	.	.	.	4a\	.	.
8F#\J	.	.	.	.	.	.	.	.	.
!	!	!	!	!	!	!	!LO:LB:g=original	!	!
=51	=51	=51	=51	=51	=51	=51	=51	=51	=51
8E\L	.	4.ryy	4.ryy	4.ryy	4.ryy	4.ryy	24g\LL	.	4.ryy
.	.	.	.	.	.	.	24f#\	.	.
.	.	.	.	.	.	.	24e\JJ	.	.
8G\	.	.	.	.	.	.	4e\	-net	.
8B\J	.	.	.	.	.	.	.	.	.
=52	=52	=52	=52	=52	=52	=52	=52	=52	=52
8A\L	.	4.ryy	4.ryy	4.ryy	4.ryy	4.ryy	4.cc\	in	4.ryy
8G\	.	.	.	.	.	.	.	.	.
8F#\J	.	.	.	.	.	.	.	.	.
=53	=53	=53	=53	=53	=53	=53	=53	=53	=53
8G\L	.	4.ryy	4.ryy	4.ryy	4.ryy	4.ryy	8b\	S(a)e-	4.ryy
8F#\	#6	.	.	.	.	.	8d#X\	-cu-	.
8E\J	.	.	.	.	.	.	8e\	-lu(m)	.
=54	=54	=54	=54	=54	=54	=54	=54	=54	=54
8C/L	.	4.ryy	4.ryy	4.ryy	4.ryy	4.ryy	24a\LL	S(a)e-	4.ryy
.	.	.	.	.	.	.	24g\	.	.
.	.	.	.	.	.	.	24f#\JJ	.	.
8AA/	.	.	.	.	.	.	4f#\	-cu-	.
8BB/J	.	.	.	.	.	.	.	.	.
=55	=55	=55	=55	=55	=55	=55	=55	=55	=55
8E/L	.	4.ryy	4.ryy	4.ryy	4.ryy	4.ryy	4e\	-li	4.ryy
*	*below	*	*	*	*	*	*	*	*
8AA/	#	.	.	.	.	.	.	.	.
8BB/J	3	.	.	.	.	.	8r	.	.
=56	=56	=56	=56	=56	=56	=56	=56	=56	=56
!	!	!	!	!	!	!	!LO:TX:b:t=1	!	!
4EE/	.	4.ryy	4.ryy	4.ryy	4.ryy	4.ryy	4.r	.	4.ryy
8r	.	.	.	.	.	.	.	.	.
==	==	==	==	==	==	==	==	==	==
*-	*-	*-	*-	*-	*-	*-	*-	*-	*-
!!!system-decoration: [g1][g2]s8
!!!AIN: 2 alto 2 empty 1 organ 1 tenor 2 vox
!!!ENC: Marta Lawrence
!!!END: 2021-02-14
!!!ENC: Andrzej Gręziak
!!!END: 2021-02-03
